X: 9
T:Professor Antonella Sorace
M:4/4
L:1/8
C:Mits Ota
K:A
AB ||: "A",c2 cB ceeA | "E7",B2 BA BccE | "F#m",F2 FE FAAE | "D",FEFc "E
7",B2 AB | "A",c2 cB ceec |
 "E7",BeEF G2 FE | "F#m",(3 FFF EF "D",AFAc |1 "E7",BAcB "A"AEAB:|2 "E7"
,BAcB "A",A2 ce |: "F#m",f2 fe "D",fagf |
"E",e2 AB "A"c2 BA | "F#m"fc (3ccc  "A",ec (3ccc | "F#m",zfcf "A",eAce |
"D",f2fe fagf | "E"eaAB "A"c2 de |
 "F#m",fF (3FFF "D",A2 Ac |1 "E7",BAcB "A",A2 ce :|2 "E7",BAcB "A",A2||
